X: 33
T: Piano Sonata No. 7 in C major, K 309 (284b), mvmt. 3
C: Wolfgang Amadeus Mozart
%%abc-version 2.0
%%abcx-abcm2ps-target-version 5.9.1 (29 Sep 2008)
%%abc-creator hum2abc beta
%%abcx-conversion-date 2021/01/14 17:01:31
%%abc-copyright 2018 Craig Stuart Sapp
%%abc-edited-by Craig Stuart Sapp
%%abc-edited-by Craig Stuart Sapp
%%abcx-initial-encoding-date 2009/09/24
%%gracespace 0 6 6
%%humdrum-veritas 909838270
%%humdrum-veritas-data 4095909596
%%linebreak <none>
%%barnumbers 0
L: 1/16
M: 2/4
N: Derived from sonata07-3.krn
Q: "Rondo: Allegretto grazioso" 1/4=112
%%staves {1 2}
V: 1 clef=treble
V: 2 clef=bass
K: C
[V:1] g2 [I:setbarnb 1]| 
[V:2] z2[K:clef=treble] | 
[V:1] fedc c2c2 | 
[V:2] CEGE CEGE | 
[V:1] c6c'2 | 
[V:2] CEGE CEGE | 
[V:1] bagf f2f2 | 
[V:2] CFAF CFAF | 
[V:1] f6a2 | 
[V:2] CFAF CFAF | 
[V:1] agfe e2g2 | 
[V:2] CEGE CEGE | 
[V:1] gfed d2f2 | 
[V:2] B,DGD B,DGD | 
[V:1] fedc .B2.c2 | 
[V:2] C2 [E2G2][D2F2][C2E2] | 
[V:1] e4d2g2 | 
[V:2] [G,4-C4][G,2B,2] z2 | 
[V:1] fedc c2c2 | 
[V:2] CEGE CEGE | 
[V:1] {/B/c/d/}c6c'2 | 
[V:2] CEGE CEGE | 
[V:1] bagf f2f2 | 
[V:2] CFAF CFAF | 
[V:1] {/e/f/g/}f6a2 | 
[V:2] CFAF CFAF | 
[V:1] agfe e2g2 | 
[V:2] CEGE ^CEAE | 
[V:1] gfed d2f2 | 
[V:2] DFAF B,DGD | 
[V:1] fefd c2!trill!B2 {/AB} | 
[V:2] [=C2G2][K:clef=bass] D2E2D2[K:clef=treble] & x2 F,2G,4 | 
[V:1] agfe e'^c'a.g | 
[V:2] CEGE ^CEAE | 
[V:1] gfed d'bg.f | 
[V:2] DFAF B,DGD | 
[V:1] feaf egfd | 
[V:2] [=C2G2][K:clef=bass] D2C2B,2 & z2 F,2G,4 | 
[V:1] c2 z2 CEGc | 
[V:2] C2 [G,,2G,2][E,,2E,2][C,,2C,2] | 
[V:1] c4edcd & E4F4 | 
[V:2] [G,,2G,2] G,2G,2G,2 | 
[V:1] c2 z2 [CE][EG][Gc][ce] & E2x6 | 
[V:2] C2 [G,,2G,2][E,,2E,2][C,,2C,2] | 
[V:1] [c4e4][eg][df][ce][df] | 
[V:2] [G,,2G,2] G,2G,2G,2 | 
[V:1] [c2e2] z2 cegc' | 
[V:2] C2 [G,,2G,2][E,,2E,2][C,,2C,2] | 
[V:1] ^g2a z ^f2=g z | 
[V:2] C8 & F,4E,4 | 
[V:1] e2=f z ^d2e z | 
[V:2] C8 & A,4G,4 | 
[V:1] ^c=dfa gfed | 
[V:2] A,4z2 F2 & F,4z2 F,2 | 
[V:1] =c2B2 CEGc | 
[V:2] E2D2z4 & G,4z4 | 
[V:1] c4edcd & E4F4 | 
[V:2] G,,C,E,G, G,2G,2 | 
[V:1] c2 z2 [CE][EG][Gc][ce] & E2x6 | 
[V:2] C2C,2z4 | 
[V:1] [c4e4][eg][df][ce][df] | 
[V:2] G,,C,E,G, G,2G,2 | 
[V:1] [c2e2] z2 cegc' | 
[V:2] C2C,2z4 | 
[V:1] ^ga.a.a ^f=g.g.g | 
[V:2] z2C4C2- & F,4E,4 | 
[V:1] e=f.f.f ^de.e.e | 
[V:2] C2C4C2 & A,4G,4 | 
[V:1] c'2a4g2- & c4c4 | 
[V:2] E,F,.F,.F, ^D,E,.E,.E, | 
[V:1] g2f4e2 & c4c4 | 
[V:2] ^C,=D,.D,.D, B,,=C,.C,.C, | 
[V:1] !turn!d2>e2 !turn!f3g | 
[V:2] [F,8A,8]- | 
[V:1] !turn!a2>b2 .c'2ze | 
[V:2] [F,4A,4][^F,2A,2] z2 | 
[V:1] g4-g^f/g/ a/g/=f/e/ | 
[V:2] z2 [G,2C2][G,2C2][G,2C2] | 
[V:1] d2 z2 z2 d2 | 
[V:2] [G,2B,2][K:clef=treble] [G2B2][A2c2][^F2A2] | 
[V:1] (3d'e'd' (3c'ba (3bc'b (3ag^f | 
[V:2] [G2B2] z2z4 | 
[V:1] (3gag (3^fe^d (3efe (3=dcB | 
[V:2] z8[K:clef=bass] | 
[V:1] c3e/d/ c2 z c | 
[V:2] z2 [G,2A,2E2][G,2A,2E2][G,2A,2E2] | 
[V:1] c3_e/d/ c2 z c | 
[V:2] z2 [G,2A,2_E2][G,2A,2E2][G,2A,2E2] | 
[V:1] (3c'd'c' (3ba^g (3aba (3=g^f^e | 
[V:2] [^F,2A,2D2] z2z4 | 
[V:1] (3^fgf (3=ed^c (3ded (3=cBA | 
[V:2] z8 | 
[V:1] B3d/c/ B2 z B | 
[V:2] z2 [G,2D2][G,2D2][G,2D2] | 
[V:1] B3d/c/ B2 z d | 
[V:2] z2 [G,2D2][G,2D2][G,2D2] | 
[V:1] (3bd'c' (3bag (3^fag (3b^df | 
[V:2] [B,,4G,4]z4 | 
[V:1] (3eg^f (3e=dc (3Bdc (3e^GB | 
[V:2] [C,4G,4]z4 | 
[V:1] (3AcB (3A=G^F (3EGF (3A^CE | 
[V:2] (3A,CB, (3A,=G,^F, (3E,G,F, (3A,^C,E, | 
[V:1] (3DE^C (3DEC (3DEC (3DEC | 
[V:2] (3D,E,^C, (3D,E,C, (3D,E,C, (3D,E,C, | 
[V:1] .D2=c2c2c2 | 
[V:2] D,2 z2z4[K:clef=treble] | 
[V:1] c2c'2.c'2.c'2 | 
[V:2] ^FAFA FAFA & D2_E2D2E2 | 
[V:1] c'2>a2 .^f2 z2 | 
[V:2] ^FAFA FAFA & D2_E2D2E2 | 
[V:1] z cc'.c' .c'.c'.c'.c' | 
[V:2] ^FAFA FAFA & D2_E2D2E2 | 
[V:1] c'2>a2 .^f2 z2 | 
[V:2] ^FAFA FAFA & D2_E2D2E2 | 
[V:1] c'2-c'/a/c'/a/ .^f2 z2 | 
[V:2] ^FAFA FAFA & D2_E2D2C2 | 
[V:1] d/d'/d/d'/ d/d'/d/d'/ d/d'/d/d'/ d/d'/d/d'/ | 
[V:2] [B,2G2] z2 [G2B2][^F2c2] | 
[V:1] d/d'/d/d'/ d/d'/d/d'/ d/d'/d/d'/ d/d'/d/d'/ | 
[V:2] [G2B2] z2[K:clef=bass] [G,2B,2][^F,2C2] | 
[V:1] d/d'/d/d'/ d/d'/d/d'/ d/d'/d/d'/ d/d'/d/d'/ | 
[V:2] [G,2B,2] z2[K:clef=treble] .[GB].[GB].[^Fc].[Fc] | 
[V:1] d/d'/d/d'/ d/d'/d/d'/ d/d'/d/d'/ d/d'/d/d'/ | 
[V:2] [G2B2] z2[K:clef=bass] .[G,B,].[G,B,].[^F,C].[F,C] | 
[V:1] [dd'] .c'.b.a .g.^f.e.d | 
[V:2] [G,2B,2] z2z4 | 
[V:1] {/c/d/} .e.d.c.B .A.G.^F.E | 
[V:2] [C,2E,2A,2] z2z4 | 
[V:1] D2 z2 [A,2C2^F2] z2 | 
[V:2] [D,,2D,2] z2 [^D,,2^D,2] z2 | 
[V:1] [G,2B,2G2] z2z4 | 
[V:2] [E,,2E,2] z2z4[K:clef=treble] | 
[V:1] {/a//}g4-g^fge | 
[V:2] z2 [^C2E2A2][C2E2A2][C2E2A2] | 
[V:1] d4-d^cdB | 
[V:2] z2 [D2G2B2][D2G2B2][D2G2B2] | 
[V:1] {/d//}=c4-cBcA | 
[V:2] z2 [D2^F2A2][D2F2A2][D2F2A2] | 
[V:1] d/d'/d/d'/ d/d'/d/d'/ d/d'/d/d'/ d/d'/d/d'/ | 
[V:2] z4[G2_B2][^F2c2] | 
[V:1] d/d'/d/d'/ d/d'/d/d'/ d/d'/d/d'/ d/d'/d/d'/ | 
[V:2] [G2_B2] z2[K:clef=bass] [G,2_B,2][^F,2C2] | 
[V:1] d/d'/d/d'/ d/d'/d/d'/ d/d'/d/d'/ d/d'/d/d'/ | 
[V:2] [G,2_B,2] z2[K:clef=treble] .[G=B].[GB].[^Fc].[Fc] | 
[V:1] d/d'/d/d'/ d/d'/d/d'/ d/d'/d/d'/ d/d'/d/d'/ | 
[V:2] [G2B2] z2[K:clef=bass] .[G,=B,].[G,B,].[^F,C].[F,C] | 
[V:1] d/d'/d/d'/ ^d/^d'/d/d'/ d/d'/d/d'/ d/d'/d/d'/ | 
[V:2] [G,2B,2][B,,6^F,6A,6] | 
[V:1] e/e'/e/e'/ _B/_b/B/b/ B/b/B/b/ B/b/B/b/ | 
[V:2] [C,2G,2][^C,6E,6G,6] | 
[V:1] (3=bd'b (3gd=B (3GBG (3DB,G, | 
[V:2] [D,2G,2] z2 (3z B,G, (3D,B,,G,, | 
[V:1] D2 z2 [A2c2d2^f2] z2 | 
[V:2] D,,2 z2 [D,2D2] z2 | 
[V:1] !arpeggio![G2B2d2g2] z2 .G.A.B.c | 
[V:2] [G,,2G,2] z2z4 | 
[V:1] .d2.e2.d2.^c2 | 
[V:2] z8 | 
[V:1] =c2 z2 B2 z2 | 
[V:2] z2 [^F,2_E2] z2 [G,2D2] | 
[V:1] z2 A2c2^F2 | 
[V:2] [C,4=E,4]z2 [D,2C2] | 
[V:1] G2 z2 .g.a.b.c' | 
[V:2] [G,2B,2]G,,2z4 | 
[V:1] .d'2.e'2.d'2.^c'2 | 
[V:2] z8[K:clef=treble] | 
[V:1] =c'2 z2 b2 z2 | 
[V:2] z2 [^D2^F2] z2 [E2G2] | 
[V:1] z2 a2c'2^f2 | 
[V:2] [C4E4]z2 [=D2c2] | 
[V:1] g4z2 [B,2D2G2] | 
[V:2] [G2B2][K:clef=bass] [D,2D2][B,,2B,2][G,,2G,2] | 
[V:1] [D4G4B4]z2 [D2G2B2] | 
[V:2] z2 [B,,2B,2][G,,2G,2][D,,2D,2] | 
[V:1] [G4B4d4]z2 [G2B2d2] | 
[V:2] z2 [=F,,2=F,2][D,,2D,2][B,,,2B,,2] | 
[V:1] [G4B4d4=f4]z2 [G2B2d2f2] | 
[V:2] z2 [D,,2D,2][B,,,2B,,2][G,,,2G,,2] | 
[V:1] [d2f2g2b2] f2d2B2 | 
[V:2] [G,,4G,4]z2 [G,2B,2D2] | 
[V:1] z2 b2f2d2 | 
[V:2] [G,4B,4D4]z2 [G,2B,2D2] | 
[V:1] z2 f'2d'2b2 | 
[V:2] [G,4B,4D4]z2 [G,2B,2D2] | 
[V:1] z2 d'2b2f2 | 
[V:2] [G,4B,4D4F4]z4[K:clef=treble] | 
[V:1] fedc c2c2 | 
[V:2] CEGE CEGE | 
[V:1] c6c'2 | 
[V:2] CEGE CEGE | 
[V:1] bagf f2f2 | 
[V:2] CFAF CFAF | 
[V:1] f6a2 | 
[V:2] CFAF CFAF | 
[V:1] agfe e2g2 | 
[V:2] CEGE CEGE | 
[V:1] gfed d2f2 | 
[V:2] B,DGD B,DGD | 
[V:1] fedc .B2.c2 | 
[V:2] C2 [E2G2][D2F2][C2E2] | 
[V:1] e4d^fg=f | 
[V:2] [G,4-C4][G,2B,2] z2 | 
[V:1] fedc Bcdc | 
[V:2] CEGE CEGE | 
[V:1] c4-cgec' | 
[V:2] CEGE CEGE | 
[V:1] bagf efgf | 
[V:2] CFAF CFAF | 
[V:1] f4-fac'a | 
[V:2] CFAF CFAF | 
[V:1] agfe e_bag | 
[V:2] CEGE ^CEAE | 
[V:1] gfed dagf | 
[V:2] DFAF B,DGD | 
[V:1] fefd c2!trill!B2 {/AB} | 
[V:2] [=C2G2][K:clef=bass] D2E2D2 & x2 F,2G,4 | 
[V:1] ge.e'.e' e'gae | 
[V:2] C,G,E,G, ^C,A,E,A, | 
[V:1] fd.d'.d' d'fgd | 
[V:2] D,A,F,A, B,,G,D,G, | 
[V:1] ec'^ga ^f=g=fd | 
[V:2] =C,2x4=DB, & x2 EF ^DE G,2 | 
[V:1] c/c'/c/c'/ c/c'/c/c'/ c/c'/c/c'/ c/c'/c/c'/ | 
[V:2] C2 z2[K:clef=treble] [E2G2][F2A2] | 
[V:1] c/c'/c/c'/ c/c'/c/c'/ c/c'/c/c'/ c/c'/c/c'/ | 
[V:2] [G2_B2] z2[K:clef=bass] [E,2G,2][F,2A,2] | 
[V:1] c/c'/c/c'/ c/c'/c/c'/ c/c'/c/c'/ c/c'/c/c'/ | 
[V:2] [G,2_B,2] z2[K:clef=treble] .[EG].[EG].[FA].[FA] | 
[V:1] c/c'/c/c'/ c/c'/c/c'/ c/c'/c/c'/ c/c'/c/c'/ | 
[V:2] [G2_B2] z2[K:clef=bass] .[E,G,].[E,G,].[F,A,].[F,A,] | 
[V:1] c=bc'b _babg | 
[V:2] [G,2_B,2] z2z4[K:clef=treble] | 
[V:1] f{/g//}f/e/.f.g a{/_b//}a/g/.a.b | 
[V:2] FcAc FcAc | 
[V:1] c'2>d'2 _b2g2 | 
[V:2] EcGc CcGc | 
[V:1] f{/g//}f/e/.f.g a{/_b//}a/g/.a.b | 
[V:2] FcAc FcAc | 
[V:1] a2g2 fedc | 
[V:2] Cc=Bc C_BGB | 
[V:1] f{/g//}f/e/.f.g a{/_b//}a/g/.a.b | 
[V:2] FcAc FcAc | 
[V:1] c'2>d'2 _b2g2 | 
[V:2] EcGc Ec_Bc | 
[V:1] a2>_b2 g2e2 | 
[V:2] FcAc C_BGB | 
[V:1] fcdA _BGcE | 
[V:2] [F2A2] z2z4[K:clef=bass] | 
[V:1] F{/G/8}F/E/.F.G A{/_B/8}A/G/.A.B | 
[V:2] F,,C,A,,C, F,,C,A,,C, | 
[V:1] c2>d2 _B2G2 | 
[V:2] E,,C,G,,C, C,,G,,E,,G,, | 
[V:1] F{/G/8}F/E/.F.G A{/_B/8}A/G/.A.B | 
[V:2] F,,C,A,,C, F,,C,A,,C, | 
[V:1] A2G2 FEDC | 
[V:2] C,,C,G,,C, C,,_B,,G,,B,, | 
[V:1] F{/G/8}F/E/.F.G A{/_B/8}A/G/A.B | 
[V:2] [F,,2A,,2] z2z4 | 
[V:1] c{/d/8}c/_B/.c.d e{/f/8}e/d/.e.f | 
[V:2] A,{/_B,/8}A,/G,/.A,.B, C{/D/8}C/B,/.C.D | 
[V:1] fd[df][_Bd] [Ac][FA][GB][EG] | 
[V:2] z2 _B,2C2C,2 | 
[V:1] .F2.A2.c2.e2 | 
[V:2] F,4z4[K:clef=treble] | 
[V:1] f2a4g/f/e/d/ | 
[V:2] z2 [F2A2][F2A2][F2A2] | 
[V:1] ^c2.e2.g2._b2 | 
[V:2] [E2G2_B2] z2z4 | 
[V:1] ^c'2e'4d'/c'/=b/a/ | 
[V:2] z2 [^C2G2A2][C2G2A2][C2G2A2] | 
[V:1] f'a=b.d' e'^fg.=c' | 
[V:2] [D2F2A2]F2 [=C2G2][E2c2] | 
[V:1] e'd'd'4!trill!c'2 {/bc'} | 
[V:2] [F2A2][F2A2][F2A2][^F2A2d2] | 
[V:1] (3bd'c' (3bag (3^fag (3bd=f | 
[V:2] [G4B4d4]z4 | 
[V:1] (3egf (3edc (3Bdc (3eAc | 
[V:2] [G4c4]z4[K:clef=bass] | 
[V:1] (3Bdc (3BAG (3^FAG (3BD=F | 
[V:2] (3B,DC (3B,A,G, (3^F,A,G, (3B,D,=F, | 
[V:1] (3EGF (3EDC (3B,DC (3E^F,A, | 
[V:2] (3E,G,F, (3E,D,C, (3B,,D,C, (3E,^F,,A,, | 
[V:1] x8 | 
[V:2] (3G,A,^F, (3G,A,F, (3G,A,F, (3G,A,F, & (3G,,A,,^F,, (3G,,A,,F,, (3G,,A,,F,, (3G,,A,,F,, | 
[V:1] x2 z2 z2 G2 | 
[V:2] G,2[K:clef=treble] [B,2D2][C2E2][D2=F2] & G,,2x6 | 
[V:1] (3gag (3=fed (3efe (3dcB | 
[V:2] [C4E4]z4 | 
[V:1] (3cdc (3BA^G (3ABA (3=GFE | 
[V:2] z8[K:clef=bass] | 
[V:1] F3A/G/ F2 z F | 
[V:2] z2 [C,2D,2A,2][C,2D,2A,2][C,2D,2A,2] | 
[V:1] F3_A/G/ F2 z F | 
[V:2] z2 [C,2D,2_A,2][C,2D,2A,2][C,2D,2A,2] | 
[V:1] (3fgf (3ed^c (3ded (3=cB^A | 
[V:2] [B,,4D,4G,4]z4 | 
[V:1] (3BcB (3=AG^F (3GAG (3=FED | 
[V:2] z8 | 
[V:1] E3G/F/ E2 z E | 
[V:2] z2 [C,2G,2][C,2G,2][C,2G,2] | 
[V:1] E3G/F/ E2 z g | 
[V:2] z2 [C,2G,2][C,2G,2][C,2G,2] | 
[V:1] (3c'd'c' (3ag^f (3gag (3fed | 
[V:2] [E,4G,4C4]z4 | 
[V:1] (3efe (3dcB (3cdc (3GFE | 
[V:2] z8 | 
[V:1] D3F/E/ D2 z D | 
[V:2] z2 [F,2A,2C2][F,2A,2C2][F,2A,2C2] | 
[V:1] D3F/E/ D2 z d | 
[V:2] z2 [F,2A,2C2][F,2A,2C2][F,2A,2C2] | 
[V:1] (3c'd'c' (3ba^g (3aba (3=gfe | 
[V:2] [F,4A,4]z4 | 
[V:1] (3fgf (3ed^c (3ded (3=cBA | 
[V:2] z8 | 
[V:1] B2f2.f2.f2 | 
[V:2] B,DB,D B,DB,D & G,2_A,2G,2A,2 | 
[V:1] f2>d2 .B2 z2 | 
[V:2] B,DB,D B,DB,D & G,2_A,2G,2A,2 | 
[V:1] z Ff.f .f.f.f.f | 
[V:2] B,DB,D B,DB,D & G,2_A,2G,2A,2 | 
[V:1] f2>d2 .B2 z2 | 
[V:2] B,DB,D B,DB,D & G,2_A,2G,2A,2 | 
[V:1] f2-f/d/f/d/ .B2 z2 | 
[V:2] B,DB,D B,DB,D & G,2_A,2G,2F,2 | 
[V:1] G/g/G/g/ G/g/G/g/ G/g/G/g/ G/g/G/g/ | 
[V:2] [E,2C2] z2 [C2E2][B,2F2] | 
[V:1] G/g/G/g/ G/g/G/g/ G/g/G/g/ G/g/G/g/ | 
[V:2] [C2E2] z2 [C,2E,2][B,,2F,2] | 
[V:1] G/g/G/g/ G/g/G/g/ G/g/G/g/ G/g/G/g/ | 
[V:2] [C,2E,2] z2 .[CE].[CE].[B,F].[B,F] | 
[V:1] G/g/G/g/ G/g/G/g/ G/g/G/g/ G/g/G/g/ | 
[V:2] [C2E2] z2 .[C,E,].[C,E,].[B,,F,].[B,,F,] | 
[V:1] [Gg] .f.e.d .c.B.A.G | 
[V:2] [C,2E,2] z2z4 | 
[V:1] {/f/g/} .a.g.f.e .d.c.B.A | 
[V:2] [F,,2A,,2D,2] z2z4 | 
[V:1] G2 z2 [D2F2B2] z2 | 
[V:2] [G,,2G,2] z2 [^G,,2^G,2] z2 | 
[V:1] [C2E2c2] z2z4 | 
[V:2] [A,,2A,2] z2z4[K:clef=treble] | 
[V:1] {/d'//}c'4-c'bc'a | 
[V:2] z2 [^F2A2d2][F2A2d2][F2A2d2] | 
[V:1] g4-g^fge | 
[V:2] z2 [G2c2e2][G2c2e2][G2c2] | 
[V:1] {/g//}=f4-fefd | 
[V:2] z2 [G2B2d2][G2B2d2][G2B2] | 
[V:1] G/g/G/g/ G/g/G/g/ G/g/G/g/ G/g/G/g/ | 
[V:2] z4[K:clef=bass][C2_E2][B,2F2] | 
[V:1] G/g/G/g/ G/g/G/g/ G/g/G/g/ G/g/G/g/ | 
[V:2] [C2_E2] z2 [C,2_E,2][B,,2F,2] | 
[V:1] G/g/G/g/ G/g/G/g/ G/g/G/g/ G/g/G/g/ | 
[V:2] [C,2_E,2] z2 .[C=E].[CE].[B,F].[B,F] | 
[V:1] G/g/G/g/ G/g/G/g/ G/g/G/g/ G/g/G/g/ | 
[V:2] [C2E2] z2 .[C,=E,].[C,E,].[B,,F,].[B,,F,] | 
[V:1] G/g/G/g/ ^G/^g/G/g/ G/g/G/g/ G/g/G/g/ | 
[V:2] [C,2E,2][E,6B,6D6] | 
[V:1] A/a/A/a/ _B/_b/B/b/ B/b/B/b/ B/b/B/b/ | 
[V:2] [F,2C2][=G,6^C6E6] | 
[V:1] (3a_ba (3=gag (3fgf (3efe | 
[V:2] [F,2A,2D2] z2z4 | 
[V:1] (3ded (3efe (3fgf (3_bc'b | 
[V:2] z4z2 [E,2G,2^C2] | 
[V:1] (3a_ba (3gag (3fgf (3efe | 
[V:2] [F,2A,2D2] z2z4 | 
[V:1] (3ded (3efe (3fgf (3_bc'b | 
[V:2] z4z2 [E,2G,2^C2] | 
[V:1] (3ac'=b (3abc' (3fag (3fga | 
[V:2] [F,8A,8D8]- | 
[V:1] (3dfe (3def (3AcB (3ABc | 
[V:2] [A,8D8] & F,4^F,4 | 
[V:1] (3BGB (3dBd (3gdg (3bgb | 
[V:2] [G,2B,2D2] z2z4 | 
[V:1] (3d'bd'[f6f'6]- | 
[V:2] z2[G,,6B,,6D,6G,6]- | 
[V:1] [ff']f'^d'e' ^c'=d'b=c' | 
[V:2] [G,,2B,,2D,2G,2] z2z4 | 
[V:1] ^ab^g=a ^f=g=fg | 
[V:2] z8[K:clef=treble] | 
[V:1] fedc c2c2 | 
[V:2] CEGE CEGE | 
[V:1] {/Bcd}c6c'2 | 
[V:2] CEGE CEGE | 
[V:1] bagf f2f2 | 
[V:2] CFAF CFAF | 
[V:1] {/e/f/g/}f6a2 | 
[V:2] CFAF CFAF | 
[V:1] agfe e2g z | 
[V:2] CEGE ^CA_BA | 
[V:1] gfed d2f z | 
[V:2] DFAF =B,G_AG | 
[V:1] fedc B2c2 | 
[V:2] =CGEG DFCE | 
[V:1] e4.dg^f=f | 
[V:2] G,CEC [G,2B,2] z2[K:clef=bass] | 
[V:1] fedc .c.c.c.c | 
[V:2] C,CE,C G,CE,C | 
[V:1] !trill!c6{/B/c/} c'2 | 
[V:2] C,CE,C G,CE,C | 
[V:1] bagf .f.f.f.f | 
[V:2] C,CF,C A,CF,C | 
[V:1] !trill!f4-{/e//} fac'a | 
[V:2] C,CF,C A,CF,C | 
[V:1] ^fge'2- e'gae | 
[V:2] E,CG,C ^C,A,E,A, | 
[V:1] g^fd'2- d'=fgd | 
[V:2] =C,A,^F,A, B,,G,D,G, | 
[V:1] fe g/f/e/d/ c2!trill!B2 {/AB} | 
[V:2] x2 A,Dx4 & C,G, =F,2 G,EG,F | 
[V:1] (3geg (3c'gc' (3e'd'c' (3_bag | 
[V:2] [C2E2] z2 z2 [^C,2E,2A,2] | 
[V:1] (3fgf (3edc (3=BAG (3FED | 
[V:2] [D,2F,2A,2] z2 [G,,2D,2F,2] z2 | 
[V:1] (3EGc (3AFD C2!trill!D2 {/C/D/} | 
[V:2] C,2F,2 E,2B,,2 & z2 F,,2G,,4 | 
[V:1] C2 (3edc (3Bdc (3e^GB | 
[V:2] C,2 (3EDC (3B,DC (3E^G,B, | 
[V:1] (3AcB (3A=GF (3EGF (3A^CE | 
[V:2] (3A,CB, (3A,=G,F, (3E,G,F, (3A,^C,E, | 
[V:1] (3DFE (3D=CB, (3A,CB, (3D^F,A, | 
[V:2] (3D,F,E, (3D,=C,B,, (3A,,C,B,, (3D,^F,,A,, | 
[V:1] G,2 z2 .G,.A,.B,.C | 
[V:2] G,,2 z2z4 | 
[V:1] D2 z2 .G.A.B.c | 
[V:2] z2 [G,,2B,,2D,2]z4 | 
[V:1] d2 z2 .B.c.d.e | 
[V:2] z2 [G,,2B,,2D,2]z4 | 
[V:1] =f2 z2 .c.d.e.f | 
[V:2] z2 [G,2B,2D2]z4 | 
[V:1] .g2.a2.g2.^f2 | 
[V:2] z8 | 
[V:1] =f2 z2 e2 z2 | 
[V:2] z2 [^G,2B,2] z2 [A,2C2] | 
[V:1] z2 d2f2B2 | 
[V:2] [F,4A,4]z2 [=G,2F2] | 
[V:1] c2 z2z4 | 
[V:2] [C2E2]C,2 .[C,,C,].[D,,D,].[E,,E,].[F,,F,] | 
[V:1] z8 | 
[V:2] .[G,,2G,2].[A,,2A,2].[G,,2G,2].[^F,,2^F,2] | 
[V:1] z2 [d2^g2b2] z2 [^c2=g2_b2] | 
[V:2] [=F,,2=F,2] z2 [E,,2E,2] z2 | 
[V:1] (3z a^g (3afd =c2!trill!d2 {/cd} | 
[V:2] z2 D2E2B,2 & F,4G,2G,2 | 
[V:1] G/g/G/g/ G/g/G/g/ G/g/G/g/ G/g/G/g/ | 
[V:2] z4[C2E2][B,2F2] | 
[V:1] G/g/G/g/ G/g/G/g/ G/g/G/g/ G/g/G/g/ | 
[V:2] [C2E2] z2 [C,2E,2][B,,2F,2] | 
[V:1] G/g/G/g/ G/g/G/g/ G/g/G/g/ G/g/G/g/ | 
[V:2] [C,2E,2] z2 .[CE].[CE].[B,F].[B,F] | 
[V:1] G/g/G/g/ G/g/G/g/ G/g/G/g/ G/g/G/g/ | 
[V:2] [C2E2] z2 .[C,E,].[C,E,].[B,,F,].[B,,F,] | 
[V:1] G/g/G/g/ _B/_b/B/b/ B/b/B/b/ B/b/B/b/ | 
[V:2] [C,2E,2][^C,6E,6G,6] | 
[V:1] A/a/A/a/ =B/=b/B/b/ B/b/B/b/ B/b/B/b/ | 
[V:2] [D,2F,2][^G,,6D,6F,6] | 
[V:1] c/c'/c/c'/ _E/_e/E/e/ E/e/E/e/ E/e/E/e/ | 
[V:2] [A,,2C,2E,2][^F,6A,6C6] | 
[V:1] (3z =e^d (3ecG (3z g^f (3gec | 
[V:2] [G,2C2] z2 [G,2C2E2] z2 | 
[V:1] (3z c'b (3c'ge (3z e'^d' (3e'c'g | 
[V:2] [G,2C2E2] z2 [G,2C2E2] z2[K:clef=treble] | 
[V:1] [^f2a2c'2_e'2] z2 [f2a2c'2e'2] z2 | 
[V:2] (3z cB (3cA^F (3z A^G (3AFC | 
[V:1] [^f2a2c'2_e'2] z2 [f2a2c'2e'2] z2 | 
[V:2] (3z ^F^E (3FCA,[K:clef=bass] (3z CB, (3CA,^F, | 
[V:1] =e'/d'/c'/b/ c'/b/a/g/ a/g/=f/e/ f/e/d/c/ | 
[V:2] [G,2C2][G,2C2][G,2C2][G,2C2] | 
[V:1] !trill!d8{/cd} | 
[V:2] [G,2C2][G,2C2][G,2B,2][G,2B,2] | 
[V:1] c2 z2 CEGc | 
[V:2] C2 [G,,2G,2][E,,2E,2][C,,2C,2] | 
[V:1] c4edcd & E4F4 | 
[V:2] [G,,2G,2] G,2G,2G,2 | 
[V:1] c2 z2 [CE][EG][Gc][ce] & E2x6 | 
[V:2] C2 [G,,2G,2][E,,2E,2][C,,2C,2] | 
[V:1] [c4e4][eg][df][ce][df] | 
[V:2] [G,,2G,2] G,2G,2G,2 | 
[V:1] [c2e2] z2 [EG][Gc][ce][eg] | 
[V:2] C2 [G,,2G,2][E,,2E,2][C,,2C,2] | 
[V:1] x4!trill!b3a/b/ & [e4g4]d4 | 
[V:2] [G,,2G,2] G,2G,2G,2 | 
[V:1] c'2x6 & e2 (3gec (3ecG (3bgd | 
[V:2] C,4z2 [G,2D2F2] | 
[V:1] (3c'ge (3gec (3ecG (3bgd | 
[V:2] [C4E4]z2 [G,2D2F2] | 
[V:1] [e2g2c'2] z2 z2 [d2g2b2] | 
[V:2] [C2E2] (3C,E,G, (3E,G,C (3G,B,D | 
[V:1] [g2c'2] z2 z2 [d2g2b2] | 
[V:2] (3CEG (3C,E,G, (3E,G,C (3G,B,D | 
[V:1] [e4g4c'4]z2 G2 | 
[V:2] [C4E4]z4 | 
[V:1] FEDC C2C2 | 
[V:2] C,,G,,E,,G,, C,G,,E,,G,, | 
[V:1] C6c2 | 
[V:2] C,,G,,E,,G,, _B,,G,,E,,G,, | 
[V:1] _BAGF F2F2 | 
[V:2] C,,A,,F,,A,, C,A,,F,,A,, | 
[V:1] F6A2 | 
[V:2] C,,A,,F,,A,, C,A,,F,,A,, | 
[V:1] GFED D2D2 | 
[V:2] C,,G,,F,,G,, =B,,G,,F,,G,, | 
[V:1] G2>A2 GFED | 
[V:2] C,,B,,G,,B,, D,B,,G,,B,, | 
[V:1] DC[E,2G,2C2][E,2G,2C2][E,2G,2C2] | 
[V:2] C,,G,,E,,G,, C,G,,E,,G,, | 
[V:1] [E,4G,4C4]z2 |]  
[V:2] [C,,4C,4]z2 |]  


